src/images/card-delete-hover.svg

<svg width="40" height="40" fill="none" xmlns="http://www.w3.org/2000/svg"><rect width="40" height="40" rx="8" fill="#fff"/><path fill-rule="evenodd" clip-rule="evenodd" d="M23 11h-6v2h-6v2h18v-2h-6v-2Zm-10 6v11a2 2 0 0 0 2 2h10a2 2 0 0 0 2-2V17h-2v11H15V17h-2Zm4 0v9h2v-9h-2Zm4 0v9h2v-9h-2Z" fill="#1A1B22"/></svg>

<svg width="40" height="40" viewBox="0 0 40 40" fill="none" xmlns="http://www.w3.org/2000/svg">
<rect width="40" height="40" rx="8" fill="white"/>
<path fill-rule="evenodd" clip-rule="evenodd" d="M23 11H17V13H11V15H29V13H23V11ZM13 17V28C13 29.1046 13.8954 30 15 30H25C26.1046 30 27 29.1046 27 28V17H25V28H15V17H13ZM17 17L17 26H19L19 17H17ZM21 17V26H23V17H21Z" fill="#1A1B22"/>
</svg>
